!!!!SEGMENT: pl-wru--50044-muz--012_buchner-philipp-friedrich--plectrum-musicum-sonata-xii.krn
!!!cenid: 16xx:1813
!!!COM: Buchner, Philipp Friedrich
!!!COM-rismID: pe30013776
!!!CDT:
!!!CNT:
!!!GTL: Plectrum musicum
!!!OTL: Sonata XII
!!!PDT: 1662
!!!AGN:
!!!SMS-siglum: PL-WRu
!!!SMS-shelfmark: 50044 Muz.
!!!SMS-shelfwork: 012 G
!!!SMS-variant:
!!!SMS-altvar:
!!!NIFC-rismSourceID: 990007465
!!!NIFC-rismChildID: 990007465
!!!NIFC-islandoraID:
!!!URL-pdf-islandora:
!!!URL-scan: https://www.bibliotekacyfrowa.pl/dlibra/doccontent?id=116
!!!ONB-nifc: UWAGA: Violino I: s. 12, Violino II: s. 25-26, Fagotto: s. 56-57 (brak numeru), Bassus: s. 72, Bassus contunuus: s. 87
!!!AIN: 1 fagot 2 violn
!!!key: g
**kern	**fba	**kern	**fba	**kern	**kern	**kern
*part5	*part5	*part4	*part4	*part3	*part2	*part1
*staff5	*	*staff4	*	*staff3	*staff2	*staff1
*I"BASSUS CONTINUUS.	*	*I"BASSUS	*	*I"VIOLINO II.	*I"VIOLINO I.	*I"FAGOTTO
*I'bc	*	*I'b	*	*I'vl 2	*I'vl 1	*I'fag
*	*	*	*	*Ivioln	*Ivioln	*Ifagot
*ICklav	*	*	*	*ICstr	*ICstr	*ICww
*IGcont	*	*IGcont	*	*	*	*
*clefF4	*	*clefF4	*	*clefG2	*clefG2	*clefF4
*k[b-]	*	*k[b-]	*	*k[b-]	*k[b-]	*k[b-]
*g:	*	*g:	*	*g:	*g:	*g:
*M2/2	*	*M2/2	*	*M2/2	*M2/2	*M2/2
*met(C|)	*	*met(C|)	*	*met(C|)	*met(C|)	*met(C|)
=1-	=1-	=1-	=1-	=1-	=1-	=1-
!!LO:TX:t=P:problem=kreski pseudotaktowe jako oddechy:global
2G\	.	2G\	.	00r	00r	4r
.	.	.	.	.	.	8GG/
.	.	.	.	.	.	8G\
4F#X\	.	4F#X\	.	.	.	8.F#X\
.	.	.	.	.	.	32E\
.	.	.	.	.	.	32F#\
4G\	.	4G\	.	.	.	8G\
!	!	!	!	!	!	!LO:TX:t=P:problem=kreska pseudotaktowa
.	.	.	.	.	.	8GG/
=2-	=2-	=2-	=2-	=2-	=2-	=2-
4D/	.	4D/	.	.	.	4D/
4B-\	.	4B-\	.	.	.	8BB-/
.	.	.	.	.	.	8B-\
4A\	.	4A\	.	.	.	8.A\
.	.	.	.	.	.	32G\
.	.	.	.	.	.	32A\
4B-\	.	4B-\	.	.	.	8B-\
!	!	!	!	!	!	!LO:TX:t=P:problem=kreska pseudotaktowa
.	.	.	.	.	.	8BB-/
=3-	=3-	=3-	=3-	=3-	=3-	=3-
2Fny\	.	2Fny\	.	.	.	4Fny\
.	.	.	.	.	.	8r
.	.	.	.	.	.	8F\
4B-\	.	4B-\	.	.	.	4B-\
!LO:TX:t=P:problem=kreska pseudotaktowa	!	!LO:TX:t=P:problem=kreska pseudotaktowa	!	!	!	!
4D/	.	4D/	.	.	.	8r
!	!	!	!	!	!	!LO:TX:t=P:problem=kreska pseudotaktowa
.	.	.	.	.	.	8D/
=4-	=4-	=4-	=4-	=4-	=4-	=4-
4G\	.	4G\	.	.	.	16G\
.	.	.	.	.	.	16B-\
.	.	.	.	.	.	16B-\
.	.	.	.	.	.	16A\
4E-X\	.	4E-X\	.	.	.	16G\
.	.	.	.	.	.	32E-X\
.	.	.	.	.	.	32D/
.	.	.	.	.	.	16E-X\
.	.	.	.	.	.	16D/
2C/	-	2C/	-	.	.	16C/
.	.	.	.	.	.	16G\
.	.	.	.	.	.	16G\
.	.	.	.	.	.	16F\
*	*	*	*	*	*	*custos:E
!	!	!	!	!	!	!LO:LB:g=original
.	.	.	.	.	.	16E-X\
.	.	.	.	.	.	32C/
.	.	.	.	.	.	32BB-/
.	.	.	.	.	.	16C/
!	!	!	!	!	!	!LO:TX:t=P:problem=kreska pseudotaktowa
.	.	.	.	.	.	16BB-/
=5-	=5-	=5-	=5-	=5-	=5-	=5-
4F\	.	4F\	.	00r	0r	16AA/
.	.	.	.	.	.	16A\
.	.	.	.	.	.	16A\
.	.	.	.	.	.	16G\
4D/	.	4D/	.	.	.	16F\
.	.	.	.	.	.	32D/
.	.	.	.	.	.	32C/
.	.	.	.	.	.	16D/
.	.	.	.	.	.	16C/
!LO:TX:t=P:problem=kreska pseudotaktowa	!	!LO:TX:t=P:problem=kreska pseudotaktowa	!	!	!	!
2BB-/	.	2BB-/	.	.	.	16BB-/
.	.	.	.	.	.	16F\
.	.	.	.	.	.	16F\
.	.	.	.	.	.	16Eny\
.	.	.	.	.	.	16D/
.	.	.	.	.	.	32BB-/
.	.	.	.	.	.	32AA/
.	.	.	.	.	.	16BB-/
!	!	!	!	!	!	!LO:TX:t=P:problem=kreska pseudotaktowa
.	.	.	.	.	.	16AA/
=6-	=6-	=6-	=6-	=6-	=6-	=6-
4GG/	.	4GG/	.	.	.	16GG/
.	.	.	.	.	.	32AA/
.	.	.	.	.	.	32BB-/
.	.	.	.	.	.	32C/
.	.	.	.	.	.	32D/
.	.	.	.	.	.	32E\
.	.	.	.	.	.	32F\
4BB-/	6	4BB-/	6	.	.	16G\
.	.	.	.	.	.	16BB-/
.	.	.	.	.	.	16AA/
.	.	.	.	.	.	16GG/
4D/	.	4D/	.	.	.	8D/
.	.	.	.	.	.	8DD/
!LO:TX:t=P:problem=kreska pseudotaktowa	!	!LO:TX:t=P:problem=kreska pseudotaktowa	!	!	!	!
4G\	.	4G\	.	.	.	8GG/
.	.	.	.	.	.	8G\
*	*	*	*	*	*	*custos:F
!	!	!	!	!	!	!LO:LB:g=original
=7-	=7-	=7-	=7-	=7-	=7-	=7-
4F#X\	.	4F#X\	.	.	1r	8.F#X\
.	.	.	.	.	.	32E\
.	.	.	.	.	.	32F#\
4G\	#	4G\	#	.	.	8G\
.	.	.	.	.	.	8GG/
2D/	4	2D/	4	.	.	8.D/
.	.	.	.	.	.	32BB-/
.	.	.	.	.	.	32C/
.	#	.	#	.	.	8D/
.	.	.	.	.	.	8DD/
=8-	=8-	=8-	=8-	=8-	=8-	=8-
2GG/	.	2GG/	.	.	4r	2GG/
.	.	.	.	.	8g/	.
.	.	.	.	.	8gg\	.
!	!	!	!	!	!	!LO:TX:t=P:problem=kreska pseudotaktowa
4D/	#	4D/	#	.	8.ff#X\	2r
.	.	.	.	.	32ee\	.
.	.	.	.	.	32ff#\	.
!LO:TX:t=P:problem=kreska pseudotaktowa	!	!LO:TX:t=P:problem=kreska pseudotaktowa	!	!	!	!
4E-X\	.	4E-X\	.	.	8gg\	.
!	!	!	!	!	!LO:TX:t=P:problem=kreska pseudotaktowa	!
.	.	.	.	.	8g/	.
=9-	=9-	=9-	=9-	=9-	=9-	=9-
4D/	.	4D/	.	1r	4dd\	8r
.	.	.	.	.	.	8D/
4G\	.	4G\	.	.	8b-/	4G\
.	.	.	.	.	8bb-\	.
!	!	!	!	!	!	!LO:TX:t=P:problem=kreska pseudotaktowa
4Fny\	.	4Fny\	.	.	8.aa\	2r
.	.	.	.	.	32gg\	.
.	.	.	.	.	32aa\	.
!LO:TX:t=P:problem=kreska pseudotaktowa	!	!LO:TX:t=P:problem=kreska pseudotaktowa	!	!	!	!
4G\	.	4G\	.	.	8bb-\	.
!	!	!	!	!	!LO:TX:t=P:problem=kreska pseudotaktowa	!
.	.	.	.	.	8b-/	.
=10-	=10-	=10-	=10-	=10-	=10-	=10-
4F\	.	4F\	.	4r	4ffny\	8r
.	.	.	.	.	.	8FF/
4BB-/	.	4BB-/	.	8d/	4r	4BB-/
.	.	.	.	8dd\	.	.
!	!	!	!	!	!	!LO:TX:t=P:problem=kreska pseudotaktowa
4AA/	#	4AA/	#	8.cc#X\	2r	2r
!	!	!	!	!LO:SIC:v:s=32b	!	!
.	.	.	.	32b-/	.	.
.	.	.	.	32cc#\	.	.
4BB-/	.	4BB-/	.	8dd\	.	.
!	!	!	!	!LO:TX:t=P:problem=kreska pseudotaktowa	!	!
.	.	.	.	8d/	.	.
*custos:AA	*	*custos:AA	*	*	*	*
!LO:LB:g=original	!	!LO:LB:g=original	!	!	!	!
=11-	=11-	=11-	=11-	=11-	=11-	=11-
4AA/	.	4AA/	.	4a/	1r	8r
.	.	.	.	.	.	8AA/
4D/	.	4D/	.	8f/	.	4D/
.	.	.	.	8ff\	.	.
!	!	!	!	!	!	!LO:TX:t=P:problem=kreska pseudotaktowa
4C/	.	4C/	.	8.ee\	.	2r
.	.	.	.	32dd\	.	.
.	.	.	.	32ee\	.	.
4D/	.	4D/	.	8ff\	.	.
!	!	!	!	!LO:TX:t=P:problem=kreska pseudotaktowa	!	!
.	.	.	.	8f/	.	.
=12-	=12-	=12-	=12-	=12-	=12-	=12-
4C/	.	4C/	.	4ccny\	4r	8r
.	.	.	.	.	.	8C/
4F\	.	4F\	.	8r	8r	4Fny\
.	.	.	.	8a/	8cc\	.
!LO:TX:t=P:problem=kreska pseudotaktowa	!	!LO:TX:t=P:problem=kreska pseudotaktowa	!	!	!	!
2D/	5	2D/	5	16dd\	16ff\	4r
.	.	.	.	16ff\	16aa\	.
.	.	.	.	16ff\	16aa\	.
.	.	.	.	16ee\	16gg\	.
.	.	.	.	16dd\	16ff\	8r
.	.	.	.	32b-/	32dd\	.
.	.	.	.	32a/	32cc\	.
!	!	!	!	!	!	!LO:TX:t=P:problem=kreska pseudotaktowa
.	6	.	6	16b-/	16dd\	8D/
!	!	!	!	!LO:TX:t=P:problem=kreska pseudotaktowa	!LO:TX:t=P:problem=kreska pseudotaktowa	!
.	.	.	.	16a/	16cc\	.
=13-	=13-	=13-	=13-	=13-	=13-	=13-
2E-X\	.	2E-X\	.	4g/	4b-/	16G\
.	.	.	.	.	.	16B-\
.	.	.	.	.	.	16B-\
.	.	.	.	.	.	16A\
.	.	.	.	8r	8r	16G\
.	.	.	.	.	.	32E-X\
.	.	.	.	.	.	32D/
.	.	.	.	8g/	8b-/	16E-\
.	.	.	.	.	.	16D/
*	*	*	*	*	*custos:ee	*
!	!	!	!	!	!LO:LB:g=original	!
2C/	- 5	2C/	- 5	16cc\	16ee-X\	4C/
.	.	.	.	16ee-X\	16gg\	.
.	.	.	.	16ee-\	16gg\	.
.	.	.	.	16dd\	16ff\	.
*	*	*	*	*custos:cc	*	*
!	!	!	!	!LO:LB:g=original	!	!
.	.	.	.	16cc\	16ee-X\	8r
.	6	.	6	32a/	32cc\	.
.	.	.	.	32g/	32b-/	.
.	.	.	.	16a/	16cc\	8C/
!	!	!	!	!LO:TX:t=P:problem=kreska pseudotaktowa	!LO:TX:t=P:problem=kreska pseudotaktowa	!
.	.	.	.	16g/	16b-/	.
*	*	*	*	*	*	*custos:F
!	!	!	!	!	!	!LO:LB:g=original
=14-	=14-	=14-	=14-	=14-	=14-	=14-
2D/	.	2D/	.	4f/	8a/	16F\
.	.	.	.	.	.	16A\
.	.	.	.	.	8a/	16A\
.	.	.	.	.	.	16G\
.	.	.	.	8r	4dd\	16F\
.	.	.	.	.	.	32D/
.	.	.	.	.	.	32C/
.	.	.	.	8a/	.	16D/
.	.	.	.	.	.	16C/
!LO:TX:t=P:problem=kreska pseudotaktowa	!	!LO:TX:t=P:problem=kreska pseudotaktowa	!	!	!	!
2BB-/	5	2BB-/	5	16dd\	16r	4BB-/
.	.	.	.	16dd\	16ff\	.
.	.	.	.	16dd\	16ff\	.
.	.	.	.	16cc\	16ee-X\	.
.	.	.	.	16b-/	16dd\	8r
.	6	.	6	32g/	32b-/	.
.	.	.	.	32f/	32a/	.
.	.	.	.	16g/	16b-/	8BB-/
!	!	!	!	!LO:TX:t=P:problem=kreska pseudotaktowa	!LO:TX:t=P:problem=kreska pseudotaktowa	!
.	.	.	.	16f/	16a/	.
=15-	=15-	=15-	=15-	=15-	=15-	=15-
2C/	5	2C/	5	16e-X/	16g/	4C/
.	.	.	.	32gg\	32ee-X\	.
.	.	.	.	32ff\	32dd\	.
.	.	.	.	16gg\	16ee-X\	.
.	.	.	.	16ff\	16dd\	.
.	.	.	.	16ee-X\	16cc\	8r
.	6	.	6	32cc\	32a/	.
.	.	.	.	32b-/	32g/	.
.	.	.	.	16cc\	16a/	8C/
.	.	.	.	16b-/	16g/	.
8D/	.	8D/	.	8a/	8f#X/	8D/
8E-X\	.	8E-X\	.	8g/	4g/	8E-X\
!LO:TX:t=P:problem=kreska pseudotaktowa	!	!LO:TX:t=P:problem=kreska pseudotaktowa	!	!LO:TX:t=P:problem=kreska pseudotaktowa	!	!
4D/	4	4D/	4	4a/	.	4D/
.	#	.	#	.	8f#X/	.
*	*	*	*	*	*custos:f	*
!	!	!	!	!	!LO:LB:g=original	!
=16-	=16-	=16-	=16-	=16-	=16-	=16-
4GG/	.	4GG/	.	4g/	16g/	4GG/
.	.	.	.	.	16dd\	.
.	.	.	.	.	16dd\	.
.	.	.	.	.	16cc\	.
4G\	.	4G\	.	4r	4b-/	8GG/
.	.	.	.	.	.	8G\
4F#X\	.	4F#X\	.	16r	4r	8.F#X\
.	.	.	.	16dd\	.	.
.	.	.	.	16dd\	.	.
.	.	.	.	16cc\	.	32Eny\
.	.	.	.	.	.	32F#\
!LO:TX:t=P:problem=kreska pseudotaktowa	!	!LO:TX:t=P:problem=kreska pseudotaktowa	!	!LO:TX:t=P:problem=kreska pseudotaktowa	!	!
4G\	.	4G\	.	4b-/	8g/	8G\
!	!	!	!	!	!LO:TX:t=P:problem=kreska pseudotaktowa	!LO:TX:t=P:problem=kreska pseudotaktowa
.	.	.	.	.	8gg\	8GG/
=17-	=17-	=17-	=17-	=17-	=17-	=17-
4D/	#	4D/	#	4r	8.ff#X\	4D/
.	.	.	.	.	32eeny\	.
.	.	.	.	.	32ff#\	.
4E-X\	.	4E-X\	.	8g/	8gg\	4r
.	.	.	.	8gg\	8g/	.
*	*	*	*	*custos:ff	*	*
!	!	!	!	!LO:LB:g=original	!	!
!	!	!	!	!	!	!LO:TX:t=P:problem=kreska pseudotaktowa
4D/	#	4D/	#	8.ff#X\	4dd\	2r
.	.	.	.	32eeny\	.	.
.	.	.	.	32ff#\	.	.
4E-X\	.	4E-X\	.	8gg\	4r	.
!	!	!	!	!LO:TX:t=P:problem=kreska pseudotaktowa	!	!
.	.	.	.	8g/	.	.
=18-	=18-	=18-	=18-	=18-	=18-	=18-
2BB-/	.	2BB-/	.	4dd\	8r	16r
.	.	.	.	.	.	16Fny\
.	.	.	.	.	8fny/	16F\
.	.	.	.	.	.	16E\
.	.	.	.	8r	4b-/	16D/
.	.	.	.	.	.	32BB-/
.	.	.	.	.	.	32AA/
.	.	.	.	8f/	.	16BB-/
.	.	.	.	.	.	16AA/
2GG/	.	2GG/	.	4b-/	16r	4GG/
.	.	.	.	.	16dd\	.
.	.	.	.	.	16dd\	.
.	.	.	.	.	16cc\	.
!	!	!	!	!LO:TX:t=P:problem=kreska pseudotaktowa	!	!
.	.	.	.	4r	16b-/	8r
.	.	.	.	.	32g/	.
.	.	.	.	.	32f/	.
.	.	.	.	.	16g/	8GG/
!	!	!	!	!	!LO:TX:t=P:problem=kreska pseudotaktowa	!
.	.	.	.	.	16f/	.
*	*	*	*	*	*	*custos:C
!	!	!	!	!	!	!LO:LB:g=original
=19-	=19-	=19-	=19-	=19-	=19-	=19-
4C/	.	4C/	.	4r	4e-X/	16C/
.	.	.	.	.	.	16c\
.	.	.	.	.	.	16c\
.	.	.	.	.	.	16B-\
4Fny\	.	4Fny\	.	8r	8r	16A\
.	.	.	.	.	.	32F\
.	.	.	.	.	.	32E\
.	.	.	.	8a/	8cc\	16F\
.	.	.	.	.	.	16E\
4D/	.	4D/	.	4dd\	16ffny\	8D/
.	.	.	.	.	16ff\	.
.	.	.	.	.	16ff\	8D/
.	.	.	.	.	16ee-X\	.
!LO:TX:t=P:problem=kreska pseudotaktowa	!	!LO:TX:t=P:problem=kreska pseudotaktowa	!	!LO:TX:t=P:problem=kreska pseudotaktowa	!	!LO:TX:t=P:problem=kreska pseudotaktowa
4G\	.	4G\	.	4r	16dd\	4G\
.	.	.	.	.	32b-/	.
.	.	.	.	.	32a/	.
.	.	.	.	.	16b-/	.
.	.	.	.	.	16a/	.
*	*	*	*	*	*custos:g	*
!	!	!	!	!	!LO:LB:g=original	!
=20-	=20-	=20-	=20-	=20-	=20-	=20-
4C/	.	4C/	.	16r	4g/	8r
.	.	.	.	16ccc\	.	.
.	.	.	.	16ccc\	.	8C/
.	.	.	.	16bb-\	.	.
4F\	.	4F\	.	16aa\	4r	4F\
.	.	.	.	32ffny\	.	.
.	.	.	.	32ee\	.	.
.	.	.	.	16ff\	.	.
.	.	.	.	16ee\	.	.
4BB-/	.	4BB-/	.	8dd\	8r	16r
.	.	.	.	.	.	16D/
.	.	.	.	8dd\	8ff\	16D/
.	.	.	.	.	.	16C/
!	!	!	!	!LO:TX:t=P:problem=kreska pseudotaktowa	!	!
4GG/	.	4GG/	.	4gg\	4bb-\	16BB-/
.	.	.	.	.	.	32GG/
.	.	.	.	.	.	32FF/
.	.	.	.	.	.	16GG/
!	!	!	!	!	!	!LO:TX:t=P:problem=kreska pseudotaktowa
.	.	.	.	.	.	16FF/
*custos:EE	*	*custos:EE	*	*	*	*
!LO:PB:g=original	!	!LO:PB:g=original	!	!	!	!
=21-	=21-	=21-	=21-	=21-	=21-	=21-
2EE-X/	5	2EE-X/	5	16r	16r	4EE-X/
.	.	.	.	16gg\	16bb-\	.
.	.	.	.	16gg\	16bb-\	.
.	.	.	.	16ff\	16aa\	.
.	.	.	.	16ee-X\	16gg\	8r
.	6	.	6	32cc\	32ee-X\	.
.	.	.	.	32b-/	32dd\	.
.	.	.	.	16cc\	16ee-X\	8EE-/
.	.	.	.	16b-/	16dd\	.
8FF/	.	8FF/	.	8a/	8cc\	8FF/
8GG/	.	8GG/	.	4b-/	8b-/	8GG/
!LO:TX:t=P:problem=kreska pseudotaktowa	!	!LO:TX:t=P:problem=kreska pseudotaktowa	!	!	!LO:TX:t=P:problem=kreska pseudotaktowa	!LO:TX:t=P:problem=kreska pseudotaktowa
4FF/	.	4FF/	.	.	4cc\	4FF/
!	!	!	!	!LO:TX:t=P:problem=kreska pseudotaktowa	!	!
.	.	.	.	8a/	.	.
=22-	=22-	=22-	=22-	=22-	=22-	=22-
4BB-/	.	4BB-/	.	4b-/	16b-/	4BB-/
.	.	.	.	.	16ff\	.
.	.	.	.	.	16ff\	.
.	.	.	.	.	16ee-X\	.
4B-\	.	4B-\	.	4r	4dd\	8BB-/
.	.	.	.	.	.	8B-\
*	*	*	*	*custos:ff	*	*
!	!	!	!	!LO:LB:g=original	!	!
4A\	.	4A\	.	16r	2r	8.A\
.	.	.	.	16ff\	.	.
.	.	.	.	16ff\	.	.
.	.	.	.	16ee-X\	.	32G\
.	.	.	.	.	.	32A\
!	!	!	!	!LO:TX:t=P:problem=kreska pseudotaktowa	!	!
4B-\	.	4B-\	.	4dd\	.	8B-\
.	.	.	.	.	.	8BB-/
*	*	*	*	*	*	*custos:F
!	!	!	!	!	!	!LO:LB:g=original
=23-	=23-	=23-	=23-	=23-	=23-	=23-
4F\	.	4F\	.	2r	16r	4F\
.	.	.	.	.	16ccc\	.
.	.	.	.	.	16ccc\	.
.	.	.	.	.	16bb-\	.
4F\	.	4F\	.	.	4aa\	8FF/
.	.	.	.	.	.	8F\
!	!	!	!	!	!LO:TX:t=P:problem=kreska pseudotaktowa	!
4Eny\	.	4Eny\	.	16r	2r	8.E\
.	.	.	.	16ccc\	.	.
.	.	.	.	16ccc\	.	.
.	.	.	.	16bb-\	.	32D/
.	.	.	.	.	.	32E\
!LO:TX:t=P:problem=kreska pseudotaktowa	!	!LO:TX:t=P:problem=kreska pseudotaktowa	!	!LO:TX:t=P:problem=kreska pseudotaktowa	!	!
4F\	.	4F\	.	4aa\	.	8F\
!	!	!	!	!	!	!LO:TX:t=P:problem=kreska pseudotaktowa
.	.	.	.	.	.	8FF/
=24-	=24-	=24-	=24-	=24-	=24-	=24-
4C/	.	4C/	.	4r	4r	4C/
4E\	6	4E\	6	8c/	8eny/	4r
.	.	.	.	8cc\	8eeny\	.
!	!	!	!	!LO:N:acc=#	!	!
4G\	#	4G\	#	8.bn/	8.dd\	4r
.	.	.	.	32a/	32cc\	.
.	.	.	.	32b/	32dd\	.
8C/	.	8C/	.	8cc\	8ee\	8C/
!LO:TX:t=P:problem=kreska pseudotaktowa	!	!LO:TX:t=P:problem=kreska pseudotaktowa	!	!LO:TX:t=P:problem=kreska pseudotaktowa	!	!
8c\	.	8c\	.	8c/	8e/	8c\
*	*	*	*	*	*custos:b	*
!	!	!	!	!	!LO:LB:g=original	!
=25-	=25-	=25-	=25-	=25-	=25-	=25-
!LO:N:acc=#	!	!LO:N:acc=#	!	!	!LO:N:acc=#	!LO:N:acc=#
4Bn\	.	4Bn\	.	4g/	4bn/	8.Bn\
.	.	.	.	.	.	32A\
.	.	.	.	.	.	32B\
!	!	!	!	!	!	!LO:SIC:v:s=8c
4c\	.	4c\	.	4r	4r	8B\
.	.	.	.	.	.	8C/
4G\	.	4G\	.	4r	4r	8G\
.	.	.	.	.	.	8GG/
!	!	!	!	!	!	!LO:TX:t=P:problem=kreska pseudotaktowa
4C/	.	4C/	.	8r	8r	4C/
!	!	!	!	!LO:TX:t=P:problem=kreska pseudotaktowa	!LO:TX:t=P:problem=kreska pseudotaktowa	!
.	.	.	.	8eny/	8g/	.
=26-	=26-	=26-	=26-	=26-	=26-	=26-
4AA/	.	4AA/	.	4a/	4cc\	16r
.	.	.	.	.	.	16A\
.	.	.	.	.	.	16A\
.	.	.	.	.	.	16G\
4D/	.	4D/	.	8r	8r	16F\
.	.	.	.	.	.	32D/
.	.	.	.	.	.	32C/
.	.	.	.	8f/	8a/	16D/
.	.	.	.	.	.	16C/
!LO:TX:t=P:problem=kreska pseudotaktowa	!	!LO:TX:t=P:problem=kreska pseudotaktowa	!	!	!	!
2BB-/	5	2BB-/	5	16b-y/	16dd\	4BB-/
.	.	.	.	16dd\	16ff\	.
.	.	.	.	16dd\	16ff\	.
.	.	.	.	16cc\	16ee\	.
.	.	.	.	16b-/	16dd\	8r
.	6	.	6	32g/	32b-y/	.
.	.	.	.	32f/	32a/	.
!	!	!	!	!	!	!LO:TX:t=P:problem=kreska pseudotaktowa
.	.	.	.	16g/	16b-/	8BB-/
!	!	!	!	!LO:TX:t=P:problem=kreska pseudotaktowa	!LO:TX:t=P:problem=kreska pseudotaktowa	!
.	.	.	.	16f/	16a/	.
=27-	=27-	=27-	=27-	=27-	=27-	=27-
8C/	.	8C/	.	8e/	8g/	8C/
8D/	.	8D/	.	4f/	8f/	8D/
4C/	4	4C/	4	.	4g/	4C/
.	3	.	3	8e/	.	.
*	*	*	*	*custos:f	*	*
!	!	!	!	!LO:LB:g=original	!	!
4FF/	.	4FF/	.	4f/	16f/	16FF/
.	.	.	.	.	16aa\	16F\
.	.	.	.	.	16aa\	16F\
.	.	.	.	.	16gg\	16E\
*	*	*	*	*	*	*custos:D
!	!	!	!	!	!	!LO:LB:g=original
4BB-/	.	4BB-/	.	8r	16ff\	16D/
.	.	.	.	.	32dd\	32BB-/
.	.	.	.	.	32cc\	32AA/
!	!	!	!	!LO:TX:t=P:problem=kreska pseudotaktowa	!	!
.	.	.	.	8ff\	16dd\	16BB-/
!	!	!	!	!	!LO:TX:t=P:problem=kreska pseudotaktowa	!LO:TX:t=P:problem=kreska pseudotaktowa
.	.	.	.	.	16cc\	16AA/
=28-	=28-	=28-	=28-	=28-	=28-	=28-
4GG/	.	4GG/	.	4bb-\	4b-/	16GG/
.	.	.	.	.	.	16G\
.	.	.	.	.	.	16G\
.	.	.	.	.	.	16F\
4C/	-	4C/	-	4r	4r	16E-X\
.	.	.	.	.	.	32C/
.	.	.	.	.	.	32BB-/
.	.	.	.	.	.	16C/
.	.	.	.	.	.	16BB-/
4AA/	.	4AA/	.	16r	16r	8AA/
.	.	.	.	16aa\	16ccc\	.
.	.	.	.	16aa\	16ccc\	8AA/
.	.	.	.	16gg\	16bb-\	.
!LO:TX:t=P:problem=kreska pseudotaktowa	!	!LO:TX:t=P:problem=kreska pseudotaktowa	!	!	!	!LO:TX:t=P:problem=kreska pseudotaktowa
4D/	.	4D/	.	16ff\	16aa\	4D/
.	.	.	.	32dd\	32ff\	.
.	.	.	.	32cc\	32ee\	.
.	.	.	.	16dd\	16ff\	.
!	!	!	!	!LO:TX:t=P:problem=kreska pseudotaktowa	!	!
.	.	.	.	16cc\	16ee\	.
=29-	=29-	=29-	=29-	=29-	=29-	=29-
4G\	.	4G\	.	8b-/	8dd\	16r
.	.	.	.	.	.	16B-y\
.	.	.	.	8b-/	8dd\	16B-\
.	.	.	.	.	.	16A\
4E-X\	.	4E-X\	.	8ee-X\	8gg\	16G\
.	.	.	.	.	.	32E-X\
.	.	.	.	.	.	32D/
.	.	.	.	8g/	8b-/	16E-X\
.	.	.	.	.	.	16D/
*	*	*	*	*	*custos:ee	*
!	!	!	!	!	!LO:LB:g=original	!
4C/	.	4C/	.	4cc\	4ee-X\	8C/
.	.	.	.	.	.	8C/
!	!	!	!	!LO:TX:t=P:problem=kreska pseudotaktowa	!LO:TX:t=P:problem=kreska pseudotaktowa	!
4F\	.	4F\	.	4r	4r	8F\
!	!	!	!	!	!	!LO:TX:t=P:problem=kreska pseudotaktowa
.	.	.	.	.	.	8FF/
*custos:BB	*	*custos:BB	*	*	*	*
!LO:LB:g=original	!	!LO:LB:g=original	!	!	!	!
=30-	=30-	=30-	=30-	=30-	=30-	=30-
4BB-/	.	4BB-/	.	4r	1r	4BB-/
4B-y\	.	4B-y\	.	8d/	.	8BB-/
.	.	.	.	8dd\	.	8B-\
4A\	.	4A\	.	8.cc\	.	8.A\
.	.	.	.	32b-/	.	32G\
.	.	.	.	32cc\	.	32A\
!LO:TX:t=P:problem=kreska pseudotaktowa	!	!LO:TX:t=P:problem=kreska pseudotaktowa	!	!	!	!
4B-\	.	4B-\	.	8dd\	.	8B-\
!	!	!	!	!LO:TX:t=P:problem=kreska pseudotaktowa	!	!
.	.	.	.	8d/	.	8BB-/
*	*	*	*	*	*	*custos:F
!	!	!	!	!	!	!LO:LB:g=original
=31-	=31-	=31-	=31-	=31-	=31-	=31-
4F\	.	4F\	.	4a/	4r	4F\
4F\	.	4F\	.	8f/	8a/	4r
.	.	.	.	8ff\	8aa\	.
4C/	.	4C/	.	8.eeny\	8.gg\	4r
.	.	.	.	32dd\	32ff\	.
.	.	.	.	32ee\	32gg\	.
4F\	.	4F\	.	8ff\	8aa\	8FF/
!	!	!	!	!LO:SIC:v:s=8f	!	!
!	!	!	!	!LO:TX:t=P:problem=kreska pseudotaktowa	!LO:TX:t=P:problem=kreska pseudotaktowa	!LO:TX:t=P:problem=kreska pseudotaktowa
.	.	.	.	8e/	8a/	8F\
=32-	=32-	=32-	=32-	=32-	=32-	=32-
4Eny\	.	4Eny\	.	4cc\	4eeny\	8.Eny\
.	.	.	.	.	.	32D/
.	.	.	.	.	.	32E\
4F\	.	4F\	.	4r	4r	8F\
.	.	.	.	.	.	8FF/
4C/	.	4C/	.	2r	4r	8C/
.	.	.	.	.	.	8C/
!LO:TX:t=P:problem=kreska pseudotaktowa	!	!LO:TX:t=P:problem=kreska pseudotaktowa	!	!	!	!LO:TX:t=P:problem=kreska pseudotaktowa
4BB-/	6	4BB-/	6	.	8g/	4BB-/
.	.	.	.	.	8gg\	.
*	*	*	*	*custos:g	*	*
!	!	!	!	!LO:PB:g=original	!	!
=33-	=33-	=33-	=33-	=33-	=33-	=33-
8AA/	6 #	8AA/	6 #	4r	8.ff#X\	8AA/
8D/	#	8D/	#	.	.	8D/
.	.	.	.	.	32ee\	.
.	.	.	.	.	32ff#\	.
8GG/	.	8GG/	.	8g/	8gg\	8GG/
8EE-X/	.	8EE-X/	.	8gg\	8g/	8EE-X/
8DD/	.	8DD/	.	8.ff#X\	4dd\	8DD/
8D/	.	8D/	.	.	.	8D/
.	.	.	.	32ee\	.	.
.	.	.	.	32ff#\	.	.
!	!	!	!	!	!LO:TX:t=P:problem=kreska pseudotaktowa	!LO:TX:t=P:problem=kreska pseudotaktowa
4E-X\	.	4E-X\	.	8gg\	4r	4E-X\
!	!	!	!	!LO:TX:t=P:problem=kreska pseudotaktowa	!	!
.	.	.	.	8g/	.	.
=34-	=34-	=34-	=34-	=34-	=34-	=34-
2D/	.	2D/	.	4dd\	8r	4D/
.	.	.	.	.	8a/	.
.	.	.	.	4r	4dd\	8r
.	.	.	.	.	.	8D/
4G\	.	4G\	.	8r	4r	16G\
.	.	.	.	.	.	16B-\
.	.	.	.	8dd\	.	16B-\
.	.	.	.	.	.	16A\
4E-X\	.	4E-X\	.	8gg\	8r	16G\
.	.	.	.	.	.	32E-X\
.	.	.	.	.	.	32D/
!	!	!	!	!	!LO:TX:t=P:problem=kreska pseudotaktowa	!
.	.	.	.	8b-/	8g/	16E-\
.	.	.	.	.	.	16D/
*	*	*	*	*	*	*custos:C
!	!	!	!	!	!	!LO:LB:g=original
=35-	=35-	=35-	=35-	=35-	=35-	=35-
2C/	5	2C/	5	16ee-X\	16cc\	4C/
.	.	.	.	16ee-\	16gg\	.
.	.	.	.	16ee-\	16gg\	.
.	.	.	.	16dd\	16ffny\	.
.	.	.	.	16cc\	16ee-X\	8r
.	6	.	6	32a/	32cc\	.
.	.	.	.	32g/	32b-/	.
.	.	.	.	16a/	16cc\	8C/
.	.	.	.	16g/	16b-/	.
*	*	*	*	*	*custos:a	*
!	!	!	!	!	!LO:LB:g=original	!
2D/	#	2D/	#	8f#X/	8a/	4D/
.	.	.	.	8a/	8aa\	.
!	!	!	!	!LO:TX:t=P:problem=kreska pseudotaktowa	!	!
.	.	.	.	4dd\	8.ff#X\	8r
.	.	.	.	.	.	8D/
.	.	.	.	.	32ee-\	.
!	!	!	!	!	!LO:TX:t=P:problem=kreska pseudotaktowa	!
.	.	.	.	.	32ff#\	.
=36-	=36-	=36-	=36-	=36-	=36-	=36-
4E-X\	.	4E-X\	.	4r	8gg\	4E-X\
.	.	.	.	.	8g/	.
4BB-/	6	4BB-/	6	8g/	8dd\	8.BB-/
.	.	.	.	8gg\	8b-/	.
.	.	.	.	.	.	16C/
4D/	#	4D/	#	8.ff#X\	8.a/	8D/
.	.	.	.	.	.	8DD/
.	.	.	.	32eeny\	32g/	.
.	.	.	.	32ff#\	32a/	.
4G\	.	4G\	.	8gg\	8b-/	8GG/
!	!	!	!	!	!LO:TX:t=P:problem=kreska pseudotaktowa	!LO:TX:t=P:problem=kreska pseudotaktowa
.	.	.	.	8g/	8bb-\	8G\
=37-	=37-	=37-	=37-	=37-	=37-	=37-
4F#X\	.	4F#X\	.	4dd\	8.aa\	8.F#X\
.	.	.	.	.	32gg\	32Eny\
.	.	.	.	.	32aa\	32F#\
4G\	.	4G\	.	4.g/	8bb-\	8G\
.	.	.	.	.	8b-/	8GG/
2D/	4	2D/	4	.	2a/	4.D/
.	.	.	.	8g/	.	.
.	#	.	#	4f#X/	.	.
.	.	.	.	.	.	8DD/
*	*	*	*	*custos:g	*	*
!	!	!	!	!LO:LB:g=original	!	!
=38-	=38-	=38-	=38-	=38-	=38-	=38-
!	!	!	!	!LO:TX:b:t=adagio.	!	!
!LO:TX:t=P:problem=kreska pseudotaktowa	!	!LO:TX:t=P:problem=kreska pseudotaktowa	!	!LO:TX:t=P:problem=kreska pseudotaktowa	!	!LO:TX:t=P:problem=kreska pseudotaktowa
1GG	.	1GG	.	1g	1g;	1GG
=39-	=39-	=39-	=39-	=39-	=39-	=39-
4r	.	4r	.	4r	4r	4r
!LO:TX:b:t=adagio.	!	!LO:TX:b:t=adagio.	!	!	!LO:TX:b:t=adagio.	!LO:TX:b:t=adagio.
4E-X\	.	4E-X\	.	4.g/	4.b-/	4E-X\
4E-\	.	4E-\	.	.	.	4E-\
.	.	.	.	8a/	8cc\	.
4D/	6	4D/	6	4.b-/	4dd\	4D/
*custos:C	*	*custos:C	*	*	*	*
!LO:LB:g=original	!	!LO:LB:g=original	!	!	!	!
=40-	=40-	=40-	=40-	=40-	=40-	=40-
4C/	7	4C/	7	.	8.ee-X\	4C/
.	.	.	.	8b-/	.	.
.	.	.	.	.	16dd\	.
4Fny\	.	4Fny\	.	4a/	4cc\	4Fny\
*	*	*	*	*	*	*custos:BB
!	!	!	!	!	!	!LO:LB:g=original
!LO:TX:t=P:problem=kreska pseudotaktowa	!	!LO:TX:t=P:problem=kreska pseudotaktowa	!	!	!	!
2BB-/	.	2BB-/	.	2b-/	2dd\	2BB-/
*	*	*	*	*	*custos:ff	*
!	!	!	!	!	!LO:LB:g=original	!
=41-	=41-	=41-	=41-	=41-	=41-	=41-
4r	.	4r	.	4r	4r	4r
4B-\	.	4B-\	.	4.dd\	4.ffny\	4B-\
4B-\	.	4B-\	.	.	.	4B-\
.	.	.	.	8ee\	8gg\	.
4A\	6	4A\	6	4.ffny\	4aa\	4A\
=42-	=42-	=42-	=42-	=42-	=42-	=42-
4G\	7	4G\	7	.	8.bb-\	4G\
.	.	.	.	8ff\	.	.
.	.	.	.	.	16aa\	.
4c\	.	4c\	.	4ee\	4gg\	4c\
!LO:TX:t=P:problem=kreska pseudotaktowa	!	!LO:TX:t=P:problem=kreska pseudotaktowa	!	!	!LO:TX:t=P:problem=kreska pseudotaktowa	!LO:TX:t=P:problem=kreska pseudotaktowa
2F\	.	2F\	.	2ff\	2aa\	2F\
=43-	=43-	=43-	=43-	=43-	=43-	=43-
4r	.	4r	.	4r	4r	4r
4F\	.	4F\	.	4.a/	4.cc\	4F\
4F\	.	4F\	.	.	.	4F\
.	.	.	.	8b-/	8dd\	.
!	!	!	!	!LO:TX:t=P:problem=kreska pseudotaktowa	!	!
4E-X\	6	4E-X\	6	4.cc\	4ee-X\	4E-X\
=44-	=44-	=44-	=44-	=44-	=44-	=44-
4D/	7	4D/	7	.	8.ff\	4D/
.	.	.	.	8cc\	.	.
.	.	.	.	.	16ee-\	.
!	!	!	!	!LO:N:acc=#	!	!
4G\	#	4G\	#	4bn/	4dd\	4G\
2C/	.	2C/	.	4cc\	4ee-X\	4.C/
!	!	!	!	!	!LO:TX:t=P:problem=kreska pseudotaktowa, między nutą a kropką	!
.	.	.	.	4.ee-X\	4.gg\	.
.	.	.	.	.	.	8C/
=45-	=45-	=45-	=45-	=45-	=45-	=45-
!	!	!	!	!	!	!LO:TX:b:t=Bbbbb
2D/	4 9	2D/	4 9	.	.	4.D/
.	.	.	.	8ee-\	8ff\	.
.	5 8	.	5 8	2dd\	2ee-X\	.
.	.	.	.	.	.	8D/
4.E-X\	7	4.E-X\	7	.	.	4.E-X\
!	!	!	!	!	!LO:TX:t=P:problem=brak nuty w źródle	!
.	6	.	6	4cc\	4ryy	.
8F\	.	8F\	.	.	.	8F\
=46-	=46-	=46-	=46-	=46-	=46-	=46-
8G\	.	8G\	.	4.b-/	4.dd\	8G\
8A\	.	8A\	.	.	.	8A\
[<4B-\	.	[<4B-\	.	.	.	2B-\
.	.	.	.	8d/	8f/	.
4B-\]	4 2	4B-\]	4 2	2c/	2e-X/	.
4A\	6	4A\	6	.	.	4A\
=47-	=47-	=47-	=47-	=47-	=47-	=47-
!	!	!	!	!	!	!LO:TX:t=P:problem=kreska pseudotaktowa
1B-	.	1B-	.	1B-	1d	1B-
*	*	*	*	*	*	*custos:B
!	!	!	!	!	!	!LO:PB:g=original
=48-	=48-	=48-	=48-	=48-	=48-	=48-
*M3/2	*	*M3/2	*	*M3/2	*M3/2	*M3/2
!LO:TX:b:t=preſto.	!	!LO:TX:b:t=preſto.	!	!LO:TX:b:t=preſto.	!LO:TX:b:t=preſto.	!LO:TX:b:t=preſto.
2B-\	.	2B-\	.	2dd\	2ff\	2B-\
2A\	6	2A\	6	2cc\	2ff\	2A\
2B-\	.	2B-\	.	2dd\	2ff\	2B-\
=49-	=49-	=49-	=49-	=49-	=49-	=49-
2.G\	.	2.G\	.	2.b-/	2.gg\	2.G\
4F\	.	4F\	.	4a/	4aa\	4F\
2E-X\	.	2E-X\	.	2g/	2bb-\	2E-X\
*	*	*	*	*custos:dd	*	*
!	!	!	!	!LO:LB:g=original	!	!
=50-	=50-	=50-	=50-	=50-	=50-	=50-
2D/	.	2D/	.	2dd\	2.bb-\	2D/
*col	*	*col	*	*	*	*col
1F	5 4	1F	5 4	2.cc\	.	1F
.	x 3	.	x 3	.	4bb-\	.
.	.	.	.	.	2aa\	.
!	!	!	!	!LO:TX:t=P:problem=kreska pseudotaktowa	!	!
.	.	.	.	4cc\	.	.
*Xcol	*	*Xcol	*	*	*custos:aa	*Xcol
!	!	!	!	!	!LO:PB:g=original	!
=51-	=51-	=51-	=51-	=51-	=51-	=51-
2C/	.	2C/	.	2cc\	2.aa\	2C/
*col	*	*col	*	*	*	*col
1E-X	5 4	1E-X	5 4	2.b-/	.	1E-X
.	.	.	.	.	4aa\	.
.	x 3	.	x 3	.	2gg\	.
.	.	.	.	4b-/	.	.
*Xcol	*	*Xcol	*	*	*	*Xcol
*custos:BB	*	*custos:BB	*	*	*	*
!LO:LB:g=original	!	!LO:LB:g=original	!	!	!	!
=52-	=52-	=52-	=52-	=52-	=52-	=52-
2BB-/	6	2BB-/	6	2b-/	2.gg\	2BB-/
*col	*	*col	*	*	*	*col
1D	5 4	1D	5 4	2.a/	.	1D
.	.	.	.	.	4gg\	.
.	x #	.	x #	.	2ff#X\	.
.	.	.	.	4a/	.	.
*Xcol	*	*Xcol	*	*	*	*Xcol
=53-	=53-	=53-	=53-	=53-	=53-	=53-
!LO:TX:t=P:problem=kreska pseudotaktowa	!	!LO:TX:t=P:problem=kreska pseudotaktowa	!	!	!	!LO:TX:t=P:problem=kreska pseudotaktowa
1.GG	.	1.GG	.	1.g	1.gg	1.GG
=54-	=54-	=54-	=54-	=54-	=54-	=54-
1GG	.	1GG	.	00.r	0.r	4GG/
.	.	.	.	.	.	4AA/
.	.	.	.	.	.	4BB-/
.	.	.	.	.	.	4GG/
2D/	.	2D/	.	.	.	4D/
!	!	!	!	!	!	!LO:TX:t=P:problem=kreska pseudotaktowa
.	.	.	.	.	.	4Eny\
=55-	=55-	=55-	=55-	=55-	=55-	=55-
2F\	.	2F\	.	.	.	4F\
.	.	.	.	.	.	4FF/
2FF/	.	2FF/	.	.	.	4AA/
.	.	.	.	.	.	4FF/
2AA/	.	2AA/	.	.	.	4C/
.	.	.	.	.	.	8BB-/
!	!	!	!	!	!	!LO:TX:t=P:problem=kreska pseudotaktowa
.	.	.	.	.	.	8C/
=56-	=56-	=56-	=56-	=56-	=56-	=56-
1BB-	.	1BB-	.	.	1.r	4D/
.	.	.	.	.	.	4BB-/
.	.	.	.	.	.	4D/
.	.	.	.	.	.	4BB-/
!LO:TX:t=P:problem=kreska pseudotaktowa	!	!LO:TX:t=P:problem=kreska pseudotaktowa	!	!	!	!
2F\	.	2F\	.	.	.	4F\
.	.	.	.	.	.	8E\
.	.	.	.	.	.	8F\
=57-	=57-	=57-	=57-	=57-	=57-	=57-
2G\	.	2G\	.	.	4dd\	2G\
.	.	.	.	.	4eeny\	.
2F\	6	2F\	6	.	4ffny\	2F\
.	.	.	.	.	4dd\	.
2E-X\	6	2E-X\	6	.	4gg\	2E-X\
.	.	.	.	.	4aa\	.
*	*	*	*	*	*	*custos:D
!	!	!	!	!	!	!LO:LB:g=original
=58-	=58-	=58-	=58-	=58-	=58-	=58-
1.D	6	1.D	6	0.r	4bb-\	1.D
.	.	.	.	.	4b-/	.
.	.	.	.	.	4dd\	.
.	.	.	.	.	4b-/	.
.	5	.	5	.	4ff\	.
.	.	.	.	.	8ee\	.
.	.	.	.	.	8ff\	.
=59-	=59-	=59-	=59-	=59-	=59-	=59-
2E-X\	.	2E-X\	.	.	2gg\	2E-X\
2D/	6	2D/	6	.	2ff\	2D/
!LO:TX:t=P:problem=kreska pseudotaktowa	!	!LO:TX:t=P:problem=kreska pseudotaktowa	!	!	!	!
2C/	-	2C/	-	.	2ee-X\	2C/
=60-	=60-	=60-	=60-	=60-	=60-	=60-
1.G	.	1.G	.	4g/	1dd	1G
.	.	.	.	4a/	.	.
.	.	.	.	4b-/	.	.
.	.	.	.	4g/	.	.
!	!	!	!	!	!	!LO:TX:t=P:problem=kreska pseudotaktowa
.	.	.	.	4dd\	2r	2r
!	!	!	!	!LO:TX:t=P:problem=kreska pseudotaktowa	!	!
.	.	.	.	4eeny\	.	.
=61-	=61-	=61-	=61-	=61-	=61-	=61-
1D	.	1D	.	4ff\	4r	2r
.	.	.	.	4fny/	4d/	.
.	.	.	.	4a/	4f/	2D/
.	.	.	.	4f/	4d/	.
!	!	!	!	!	!	!LO:TX:t=P:problem=kreska pseudotaktowa
2C/	6	2C/	6	4cc\	4a/	2C/
.	.	.	.	8b-/	8g/	.
!	!	!	!	!LO:TX:t=P:problem=kreska pseudotaktowa	!	!
.	.	.	.	8cc\	8a/	.
=62-	=62-	=62-	=62-	=62-	=62-	=62-
2BB-/	.	2BB-/	.	2dd\	2b-/	2BB-/
2AA/	.	2AA/	.	2cc\	2r	2AA/
2GG/	.	2GG/	.	2b-/	2r	2GG/
*	*	*	*	*	*custos:f	*
!	!	!	!	!	!LO:LB:g=original	!
=63-	=63-	=63-	=63-	=63-	=63-	=63-
1D	.	1D	.	1a	4f/	4D/
.	.	.	.	.	4g/	4Eny\
.	.	.	.	.	4a/	4F\
.	.	.	.	.	4f/	4D/
!LO:TX:t=P:problem=kreska pseudotaktowa	!	!LO:TX:t=P:problem=kreska pseudotaktowa	!	!LO:TX:t=P:problem=kreska pseudotaktowa	!	!
2G\	.	2G\	.	2r	4b-/	4G\
!	!	!	!	!	!LO:TX:t=P:problem=kreska pseudotaktowa	!
.	.	.	.	.	4cc\	4A\
=64-	=64-	=64-	=64-	=64-	=64-	=64-
2B-\	.	2B-\	.	2r	4dd\	4B-\
.	.	.	.	.	4d/	4BB-/
2BB-/	.	2BB-/	.	2dd\	4f/	4D/
.	.	.	.	.	4d/	4BB-/
2AA/	.	2AA/	.	2cc\	4a/	4F\
.	.	.	.	.	8g/	8E\
!	!	!	!	!	!	!LO:TX:t=P:problem=kreska pseudotaktowa
.	.	.	.	.	8a/	8F\
=65-	=65-	=65-	=65-	=65-	=65-	=65-
1GG	.	1GG	.	4b-/	1b-	4G\
.	.	.	.	4b-/	.	4GG/
.	.	.	.	4dd\	.	4BB-/
.	.	.	.	4b-/	.	4GG/
2D/	.	2D/	.	4ff\	2r	4D/
.	.	.	.	8ee\	.	8C/
.	.	.	.	8ff\	.	8D/
=66-	=66-	=66-	=66-	=66-	=66-	=66-
1E-X	.	1E-X	.	1gg	4g/	1E-X
.	.	.	.	.	4a/	.
.	.	.	.	.	4b-/	.
.	.	.	.	.	4g/	.
!	!	!	!	!	!	!LO:TX:t=P:problem=kreska pseudotaktowa
2BB-/	.	2BB-/	.	2r	4dd\	2r
.	.	.	.	.	4eeny\	.
*	*	*	*	*custos:d	*	*
!	!	!	!	!LO:LB:g=original	!	!
=67-	=67-	=67-	=67-	=67-	=67-	=67-
1D	.	1D	.	4r	4ff\	2r
.	.	.	.	4d/	4f/	.
.	.	.	.	4f/	4a/	2D/
.	.	.	.	4d/	4f/	.
2C/	6	2C/	6	4a/	4cc\	2C/
.	.	.	.	8g/	8b-/	.
.	.	.	.	8a/	8cc\	.
*custos:BB	*	*custos:BB	*	*	*	*
!LO:LB:g=original	!	!LO:LB:g=original	!	!	!	!
=68-	=68-	=68-	=68-	=68-	=68-	=68-
2BB-/	.	2BB-/	.	4d/	1dd	2BB-/
.	.	.	.	4e/	.	.
2B-\	.	2B-\	.	4f/	.	2B-\
.	.	.	.	4d/	.	.
!	!	!	!	!	!LO:TX:t=P:problem=kreska pseudotaktowa	!
2G\	.	2G\	.	4g/	2r	2G\
!	!	!	!	!LO:TX:t=P:problem=kreska pseudotaktowa	!	!
.	.	.	.	4a/	.	.
*	*	*	*	*	*	*custos:E
!	!	!	!	!	!	!LO:LB:g=original
=69-	=69-	=69-	=69-	=69-	=69-	=69-
1E-X	.	1E-X	.	4b-/	4r	2E-X\
.	.	.	.	4e-X/	4g/	.
.	.	.	.	4g/	4b-/	2E-\
.	.	.	.	4e-/	4g/	.
2D/	6	2D/	6	4b-/	4dd\	2D/
.	.	.	.	8a/	8cc\	.
.	.	.	.	8b-/	8dd\	.
=70-	=70-	=70-	=70-	=70-	=70-	=70-
1C	-	1C	-	1cc	2ee-X\	2C/
.	.	.	.	.	2gg\	2C/
!	!	!	!	!LO:TX:t=P:problem=kreska pseudotaktowa	!	!
2D/	.	2D/	.	2r	2ff\	2D/
*	*	*	*	*	*custos:ee	*
!	!	!	!	!	!LO:LB:g=original	!
=71-	=71-	=71-	=71-	=71-	=71-	=71-
2E-X\	.	2E-X\	.	4g/	1ee-X	2E-X\
.	.	.	.	4a/	.	.
2GG/	6	2GG/	6	4b-\	.	2GG/
.	.	.	.	4g/	.	.
2BB-/	.	2BB-/	.	4dd\	2r	2BB-/
.	.	.	.	4ee\	.	.
=72-	=72-	=72-	=72-	=72-	=72-	=72-
1.AA	6	1.AA	6	4ff\	4r	1.AA
.	.	.	.	4f/	4a/	.
.	.	.	.	4a/	4cc\	.
.	.	.	.	4f/	4a/	.
.	.	.	.	4cc\	4a/	.
.	.	.	.	8b-/	8g/	.
!	!	!	!	!	!LO:TX:t=P:problem=kreska pseudotaktowa	!
.	.	.	.	8cc\	8a/	.
=73-	=73-	=73-	=73-	=73-	=73-	=73-
2GG/	.	2GG/	.	2dd\	2b-/	2GG/
2G\	.	2G\	.	2dd\	2b-/	2G\
2A\	.	2A\	.	2cc\	2cc\	2A\
=74-	=74-	=74-	=74-	=74-	=74-	=74-
2B-\	.	2B-\	.	1b-	2dd\	2B-\
2D/	6	2D/	6	.	2f/	2D/
!LO:TX:t=P:problem=kreska pseudotaktowa	!	!LO:TX:t=P:problem=kreska pseudotaktowa	!	!	!	!LO:TX:t=P:problem=kreska pseudotaktowa
2F\	.	2F\	.	2r	2a/	2F\
=75-	=75-	=75-	=75-	=75-	=75-	=75-
1.E-X	5	1.E-X	5	2r	1.g	1.E-X
.	.	.	.	2b-/	.	.
.	6	.	6	2cc\	.	.
*	*	*	*	*custos:dd	*	*
!	!	!	!	!LO:LB:g=original	!	!
=76-	=76-	=76-	=76-	=76-	=76-	=76-
1D	.	1D	.	2dd\	1f	1.D
.	.	.	.	2f/	.	.
!	!	!	!	!	!LO:TX:t=P:problem=kreska pseudotaktowa	!
2C/	6	2C/	6	2a/	2r	.
=77-	=77-	=77-	=77-	=77-	=77-	=77-
1BB-	6	1BB-	6	1.g	2r	2r
.	.	.	.	.	2dd\	2BB-/
!LO:TX:t=P:problem=kreska pseudotaktowa	!	!LO:TX:t=P:problem=kreska pseudotaktowa	!	!	!	!LO:TX:t=P:problem=kreska pseudotaktowa
2C/	.	2C/	.	.	2eeny\	2C/
=78-	=78-	=78-	=78-	=78-	=78-	=78-
2D/	.	2D/	.	1.f	2ff\	2D/
2FF/	.	2FF/	.	.	2a/	2FF/
2AA/	6	2AA/	6	.	2cc\	2AA/
=79-	=79-	=79-	=79-	=79-	=79-	=79-
1.GG	7	1.GG	7	1f	1.b-	1.GG
.	6	.	6	2eny/	.	.
=80-	=80-	=80-	=80-	=80-	=80-	=80-
2FF/	.	2FF/	.	1f	2a/	2FF/
*col	*	*col	*	*	*col	*col
1C	4	1C	4	.	1g	1C
.	3	.	3	2e/	.	.
*Xcol	*	*Xcol	*	*	*Xcol	*Xcol
=81-	=81-	=81-	=81-	=81-	=81-	=81-
!LO:TX:t=P:problem=kreska pseudotaktowa	!	!LO:TX:t=P:problem=kreska pseudotaktowa	!	!LO:TX:t=P:problem=kreska pseudotaktowa	!LO:TX:t=P:problem=kreska pseudotaktowa	!LO:TX:t=P:problem=kreska pseudotaktowa
1.FF	.	1.FF	.	1.f	1.f	1.FF
=82-	=82-	=82-	=82-	=82-	=82-	=82-
2F\	.	2F\	.	2cc\	2aa\	2F\
2Eny\	6	2Eny\	6	2cc\	2gg\	2Eny\
2F\	.	2F\	.	2cc\	2aa\	2F\
=83-	=83-	=83-	=83-	=83-	=83-	=83-
2.D/	.	2.D/	.	2.dd\	2.ff\	2.D/
4C/	.	4C/	.	4ee\	4ee\	4C/
!	!	!	!	!	!	!LO:TX:t=P:problem=kreska pseudotaktowa
2BB-/	.	2BB-/	.	2ff\	2dd\	2BB-/
*custos:AA	*	*custos:AA	*	*	*	*
!LO:LB:g=original	!	!LO:LB:g=original	!	!	!	!
=84-	=84-	=84-	=84-	=84-	=84-	=84-
2AA/	.	2AA/	.	2.ff\	2aa\	2AA/
*col	*	*col	*	*	*	*col
1C	5 4	1C	5 4	.	2.gg\	1C
.	.	.	.	4ff\	.	.
!	!	!	!	!LO:TX:t=P:problem=kreska pseudotaktowa	!	!
.	x 3	.	x 3	2ee\	.	.
.	.	.	.	.	4gg\	.
*Xcol	*	*Xcol	*	*	*	*Xcol
*	*	*	*	*	*	*custos:GG
!	!	!	!	!	!	!LO:LB:g=original
=85-	=85-	=85-	=85-	=85-	=85-	=85-
2GG/	6	2GG/	6	2.ee\	2gg\	2GG/
*col	*	*col	*	*	*	*col
1BB-	5 4	1BB-	5 4	.	2.ff\	1BB-
.	.	.	.	4ee\	.	.
.	x 7	.	x 7	2dd\	.	.
.	.	.	.	.	4ff\	.
*Xcol	*	*Xcol	*	*	*custos:ff	*Xcol
!	!	!	!	!	!LO:LB:g=original	!
=86-	=86-	=86-	=86-	=86-	=86-	=86-
2FF/	6	2FF/	6	2.dd\	2ff\	2FF/
*col	*	*col	*	*	*	*col
1AA	4	1AA	4	.	2.ee\	1AA
.	.	.	.	4dd\	.	.
.	#	.	#	2cc#X\	.	.
.	.	.	.	.	4ee\	.
*Xcol	*	*Xcol	*	*	*	*Xcol
=87-	=87-	=87-	=87-	=87-	=87-	=87-
!LO:TX:t=P:problem=kreska pseudotaktowa	!	!LO:TX:t=P:problem=kreska pseudotaktowa	!	!	!	!LO:TX:t=P:problem=kreska pseudotaktowa
1.DD	.	1.DD	.	1.dd	1.dd	1.DD
*	*	*	*	*custos:dd	*	*
!	!	!	!	!LO:LB:g=original	!	!
=88-	=88-	=88-	=88-	=88-	=88-	=88-
1D	.	1D	.	4dd\	0.r	2r
.	.	.	.	4ee\	.	.
.	.	.	.	4ff\	.	2D/
.	.	.	.	4dd\	.	.
2C/	.	2C/	.	4gg\	.	2C/
!	!	!	!	!LO:TX:t=P:problem=kreska pseudotaktowa	!	!
.	.	.	.	4aa\	.	.
=89-	=89-	=89-	=89-	=89-	=89-	=89-
2BB-/	.	2BB-/	.	4bb-\	.	2BB-/
.	.	.	.	4b-/	.	.
2B-\	.	2B-\	.	4dd\	.	2B-\
.	.	.	.	4b-/	.	.
2A\	6	2A\	6	4ff\	.	2A\
.	.	.	.	8ee\	.	.
!	!	!	!	!LO:TX:t=P:problem=kreska pseudotaktowa	!	!
.	.	.	.	8ff\	.	.
=90-	=90-	=90-	=90-	=90-	=90-	=90-
1.G	.	1.G	.	1gg	4g/	1G
.	.	.	.	.	4a/	.
.	.	.	.	.	4b-/	.
.	.	.	.	.	4g/	.
.	.	.	.	2r	4dd\	2r
!	!	!	!	!	!LO:TX:t=P:problem=kreska pseudotaktowa	!
.	.	.	.	.	4ee\	.
=91-	=91-	=91-	=91-	=91-	=91-	=91-
1F	.	1F	.	2r	4ff\	2r
.	.	.	.	.	4f/	.
.	.	.	.	2a/	4a/	2F\
.	.	.	.	.	4f/	.
!	!	!	!	!LO:TX:t=P:problem=kreska pseudotaktowa	!	!LO:TX:t=P:problem=kreska pseudotaktowa
2E-X\	6	2E-X\	6	2g/	4cc\	2E-X\
.	.	.	.	.	8b-/	.
.	.	.	.	.	8cc\	.
=92-	=92-	=92-	=92-	=92-	=92-	=92-
1D	.	1D	.	4f/	1dd	4D/
.	.	.	.	4g/	.	4Eny\
.	.	.	.	4a/	.	4F\
.	.	.	.	4f/	.	4D/
2G\	.	2G\	.	4b-/	2r	4G\
.	.	.	.	4ccny\	.	4A\
=93-	=93-	=93-	=93-	=93-	=93-	=93-
2B-\	.	2B-\	.	1dd	2r	4B-\
.	.	.	.	.	.	4BB-/
2BB-/	.	2BB-/	.	.	2dd\	4D/
.	.	.	.	.	.	4BB-/
2F\	.	2F\	.	2r	2cc\	4F\
.	.	.	.	.	.	8E\
!	!	!	!	!	!	!LO:TX:t=P:problem=kreska pseudotaktowa
.	.	.	.	.	.	8F\
=94-	=94-	=94-	=94-	=94-	=94-	=94-
!LO:TX:t=P:problem=kreska pseudotaktowa	!	!LO:TX:t=P:problem=kreska pseudotaktowa	!	!	!	!
1.G	.	1.G	.	4g/	1b-	1G
.	.	.	.	4a/	.	.
.	.	.	.	4b-/	.	.
.	.	.	.	4g/	.	.
.	.	.	.	4dd\	2r	2r
.	.	.	.	4ee\	.	.
=95-	=95-	=95-	=95-	=95-	=95-	=95-
1D	.	1D	.	2ff\	4dd\	2r
.	.	.	.	.	4ee\	.
.	.	.	.	2ff\	4ff\	2D/
.	.	.	.	.	4dd\	.
!	!	!	!	!LO:TX:t=P:problem=kreska pseudotaktowa	!	!LO:TX:t=P:problem=kreska pseudotaktowa
2C/	.	2C/	.	2ee\	4gg\	2C/
.	.	.	.	.	4aa\	.
=96-	=96-	=96-	=96-	=96-	=96-	=96-
2BB-/	.	2BB-/	.	2dd\	4bb-\	2BB-/
.	.	.	.	.	4b-/	.
2B-\	.	2B-\	.	2dd\	4dd\	2B-\
.	.	.	.	.	4b-/	.
2A\	6	2A\	6	2cc\	4ff\	2A\
.	.	.	.	.	8ee\	.
.	.	.	.	.	8ff\	.
=97-	=97-	=97-	=97-	=97-	=97-	=97-
2G\	.	2G\	.	2b-/	1gg	4G\
.	.	.	.	.	.	4GG/
2GG/	.	2GG/	.	2b-/	.	4BB-/
.	.	.	.	.	.	4GG/
*	*	*	*	*	*	*custos:D
!	!	!	!	!	!	!LO:LB:g=original
2D/	.	2D/	.	2a/	2r	4D/
.	.	.	.	.	.	8C/
.	.	.	.	.	.	8D/
*	*	*	*	*custos:g	*custos:g	*
!	!	!	!	!LO:LB:g=original	!LO:LB:g=original	!
=98-	=98-	=98-	=98-	=98-	=98-	=98-
1E-X	.	1E-X	.	4g/	4r	2E-X\
.	.	.	.	4e-X/	4g/	.
.	.	.	.	4g/	4b-/	2E-\
.	.	.	.	4e-X/	4g/	.
!	!	!	!	!	!	!LO:TX:t=P:problem=kreska pseudotaktowa
2D/	6	2D/	6	4b-/	4dd\	2D/
.	.	.	.	8a/	8cc\	.
!	!	!	!	!LO:TX:t=P:problem=kreska pseudotaktowa	!	!
.	.	.	.	8b-/	8dd\	.
=99-	=99-	=99-	=99-	=99-	=99-	=99-
1C	-	1C	-	2cc\	1ee-X	2C/
.	.	.	.	2ee-X\	.	2C/
!LO:TX:t=P:problem=kreska pseudotaktowa	!	!LO:TX:t=P:problem=kreska pseudotaktowa	!	!	!LO:TX:t=P:problem=kreska pseudotaktowa	!
2D/	.	2D/	.	2ff\	2r	2D/
=100-	=100-	=100-	=100-	=100-	=100-	=100-
2E-X\	.	2E-X\	.	2gg\	1.r	2E-X\
2GG/	.	2GG/	.	2b-/	.	2GG/
2BB-/	.	2BB-/	.	2dd\	.	2BB-/
*custos:AA	*	*custos:AA	*	*	*	*
!LO:LB:g=original	!	!LO:LB:g=original	!	!	!	!
=101-	=101-	=101-	=101-	=101-	=101-	=101-
1.AA-X	5	1.AA-X	5	1.cc	2r	1.AA-X
.	.	.	.	.	2ee-X\	.
.	6	.	6	.	2ff\	.
=102-	=102-	=102-	=102-	=102-	=102-	=102-
!	!	!	!	!LO:TX:t=P:problem=kreska pseudotaktowa	!	!LO:TX:t=P:problem=kreska pseudotaktowa
2GG/	.	2GG/	.	1.b-	2gg\	1.GG
2G\	.	2G\	.	.	2b-/	.
2F\	.	2F\	.	.	2dd\	.
=103-	=103-	=103-	=103-	=103-	=103-	=103-
1E-X	6	1E-X	6	2r	1.cc	2r
.	.	.	.	2gg\	.	2E-X\
!LO:TX:t=P:problem=kreska pseudotaktowa	!	!LO:TX:t=P:problem=kreska pseudotaktowa	!	!	!	!
2F\	.	2F\	.	2aa\	.	2F\
=104-	=104-	=104-	=104-	=104-	=104-	=104-
2G\	.	2G\	.	2bb-\	1.b-	2G\
2BB-/	.	2BB-/	.	2dd\	.	2BB-/
2D/	6	2D/	6	2ff\	.	2D/
=105-	=105-	=105-	=105-	=105-	=105-	=105-
1.C	7 -	1.C	7 -	1.ee-X	1b-	1.C
.	6 x	.	6 x	.	2a/	.
=106-	=106-	=106-	=106-	=106-	=106-	=106-
2BB-/	6	2BB-/	6	2dd\	1b-	2BB-/
*col	*	*col	*	*col	*	*col
1F	4	1F	4	1cc	.	1F
.	3	.	3	.	2a/	.
*Xcol	*	*Xcol	*	*Xcol	*	*Xcol
=107-	=107-	=107-	=107-	=107-	=107-	=107-
!LO:TX:t=P:problem=kreska pseudotaktowa	!	!LO:TX:t=P:problem=kreska pseudotaktowa	!	!	!	!LO:TX:t=P:problem=kreska pseudotaktowa
1.BB-	.	1.BB-	.	1.b-	1.b-	1.BB-
=108-	=108-	=108-	=108-	=108-	=108-	=108-
2B-\	.	2B-\	.	2dd\	2ff\	2B-\
2A\	6	2A\	6	2cc\	2ff\	2A\
2B-\	.	2B-\	.	2dd\	2ff\	2B-\
=109-	=109-	=109-	=109-	=109-	=109-	=109-
2.G\	.	2.G\	.	2.b-/	2.gg\	2.G\
4F\	.	4F\	.	4a/	4aa\	4F\
!	!	!	!	!LO:TX:t=P:problem=kreska pseudotaktowa	!	!
2E-X\	.	2E-X\	.	2g/	2bb-\	2E-X\
=110-	=110-	=110-	=110-	=110-	=110-	=110-
2D/	6	2D/	6	2dd\	2.bb-\	2D/
*col	*	*col	*	*	*	*col
1F	5 4	1F	5 4	2.cc\	.	1F
.	.	.	.	.	4bb-\	.
.	x 3	.	x 3	.	2aa\	.
.	.	.	.	4cc\	.	.
*Xcol	*	*Xcol	*	*custos:cc	*	*Xcol
!	!	!	!	!LO:LB:g=original	!	!
=111-	=111-	=111-	=111-	=111-	=111-	=111-
2C/	6	2C/	6	2cc\	2.aa\	2C/
*col	*	*col	*	*	*	*
1E-X	5 4	1E-X	5 4	2.b-/	.	1E-X
.	.	.	.	.	4aa\	.
.	.	.	.	.	2gg\	.
!	!	!	!	!LO:TX:t=P:problem=kreska pseudotaktowa	!	!
.	x 7	.	x 7	4b-/	.	.
*Xcol	*	*Xcol	*	*	*	*custos:BB
!	!	!	!	!	!	!LO:LB:g=original
=112-	=112-	=112-	=112-	=112-	=112-	=112-
2BB-/	6	2BB-/	6	2b-/	2.gg\	2BB-/
*col	*	*col	*	*	*	*col
1D	4	1D	4	2.a/	.	1D
.	.	.	.	.	4gg\	.
.	#	.	#	.	2ff#X\	.
.	.	.	.	4a/	.	.
*Xcol	*	*Xcol	*	*	*custos:gg	*Xcol
!	!	!	!	!	!LO:LB:g=original	!
=113-	=113-	=113-	=113-	=113-	=113-	=113-
1.GG	.	1.GG	.	1.g	1.gg	1.GG
=114-	=114-	=114-	=114-	=114-	=114-	=114-
*M2/2	*	*M2/2	*	*M2/2	*M2/2	*M2/2
*met(C|)	*	*met(C|)	*	*met(C|)	*met(C|)	*met(C|)
!LO:TX:b:t=adagio.	!	!LO:TX:b:t=adagio.	!	!	!	!LO:TX:b:t=adagio.
2G\	.	2G\	.	1r	4r	4r
!	!	!	!	!	!LO:TX:b:t=adagio.	!
.	.	.	.	.	8.b-/	8.G\
.	.	.	.	.	16cc\	16A\
4B-\	.	4B-\	.	.	4dd\	4B-\
4D/	.	4D/	.	.	8f/	8D/
!	!	!	!	!	!LO:TX:t=P:problem=kreska pseudotaktowa	!LO:TX:t=P:problem=kreska pseudotaktowa
.	.	.	.	.	8a/	8F\
=115-	=115-	=115-	=115-	=115-	=115-	=115-
!	!	!	!	!LO:TX:b:t=adagio.	!	!
2E-X\	.	2E-X\	.	4r	2g/	2E-X\
.	.	.	.	8.b-/	.	.
.	.	.	.	16cc\	.	.
4.D/	.	4.D/	.	4dd\	4f/	4D/
!	!	!	!	!	!LO:TX:t=P:problem=kreska pseudotaktowa	!LO:TX:t=P:problem=kreska pseudotaktowa
.	.	.	.	8f/	4r	4r
!	!	!	!	!LO:TX:t=P:problem=kreska pseudotaktowa	!	!
8C/	6	8C/	6	8a/	.	.
*custos:BB	*	*custos:BB	*	*	*	*
!LO:LB:g=original	!	!LO:LB:g=original	!	!	!	!
=116-	=116-	=116-	=116-	=116-	=116-	=116-
2BB-/	6	2BB-/	6	2g/	4r	4r
.	.	.	.	.	8.dd\	8.BB-/
.	.	.	.	.	16eeny\	16C/
4D/	.	4D/	.	2.f/	4ffny\	4D/
4FF/	.	4FF/	.	.	8g/	8FF/
.	.	.	.	.	8cc\	8AAny/
=117-	=117-	=117-	=117-	=117-	=117-	=117-
2GG/	7	2GG/	7	.	2b-/	2GG/
.	6	.	6	4eny/	.	.
!	!	!	!	!	!LO:TX:t=P:problem=kreska pseudotaktowa	!
2FF/	.	2FF/	.	4f/	2a/	2FF/
.	.	.	.	8.a/	.	.
!	!	!	!	!LO:TX:t=P:problem=kreska pseudotaktowa	!	!
.	.	.	.	16b-/	.	.
=118-	=118-	=118-	=118-	=118-	=118-	=118-
2C/	-	2C/	-	4cc\	4r	4r
.	.	.	.	4r	8.ee-X\	8.C/
.	.	.	.	.	16ff\	16D/
4E-X\	.	4E-X\	.	8g/	4gg\	4E-X\
.	.	.	.	8b-/	.	.
!	!	!	!	!	!LO:N:acc=#	!
8GG/	#	8GG/	#	4.dd\	8bn/	8GG/
!LO:N:acc=#	!	!LO:N:acc=#	!	!	!	!LO:N:acc=#
8BBn/	.	8BBn/	.	.	8dd\	8BBn/
=119-	=119-	=119-	=119-	=119-	=119-	=119-
1C	- 9	1C	- 9	.	[2ee-X\	1C
.	.	.	.	8dd\	.	.
.	.	.	.	4.cc\	.	.
.	.	.	.	.	8ee-\]	.
.	.	.	.	8cc\	8ee-\	.
.	.	.	.	8b-/	8dd\	.
.	x 8	.	x 8	8a/	8cc\	.
=120-	=120-	=120-	=120-	=120-	=120-	=120-
!	!	!	!	!LO:N:acc=#	!	!
0GG;	.	0GG;	.	0bn;	0dd;	0GG;
==	==	==	==	==	==	==
*-	*-	*-	*-	*-	*-	*-
!!!system-decoration: [s1][(s2,s3,s4)]<s5>
!!!RDF**kern: > = above
!!!RDF**kern: < = below
!!!ENC: Anastazja Marusiak
!!!END: 2022-11-09
!!!ENC: Andrzej Kubiczek
!!!END: 2022-11-30
!!!YEC: Copyright 2022 Narodowy Instytut Fryderyka Chopina (https://polishscores.org)
!!!YEM: License CC-BY-4.0 (https://creativecommons.org/licenses/by/4.0)
